X:1
T:James Gibb editions
T:Psalm 12 (Becker) - Schütz
%%score [ ( 1 2 ) ( 3 4 ) ]
L:1/8
Q:1/4=108
M:2/2
K:F
V:1 treble nm="Soprano Alto"
V:2 treble 
V:3 bass nm="Tenor Bass"
V:4 bass 
V:1
"^Cornelius Becker\n(1561-1604)""^Heinrich Schütz\n(1585-1672)""^Psalm 12, SWV 108" A4 B2 A2 | %1
w: ~Ach Gott vom|
w: wie we- nig|
 G2 d2 (dc) B2 | A4 c4 | B2 A2 G2 c2 | (B2 A2) G4 :|[M:2/2] G4 A2 F2 | E2 D2 F2 G2 | A4 A4 | %8
w: Him- mel sieh * da-|rein, und|laß dich des er-|bar\- * men,|dein Wort man|nicht läßt ha- ben|wahr, der|
w: sind der Hei\_- * gen|dein, ver-|las- sen sind wir|Ar\- * men,||||
 G2 B2 A2 B2 | G2 ^F2 G4 | G4 d2 B2 | c2 d2 (c2 B2) | A8 |] %13
w: Glaub' ist auch ver-|lo- schen gar|bei al- len|Men- schen- kin\- *|dern.|
w: |||||
V:2
 D4 D2 D2 | B,2 F2 (DE/F/) G2 | ^F4 G4 | G2 F2 B,2 _E2 | D4 D4 :|[M:2/2] D4 F2 C2 | C2 A,2 D2 D2 | %7
 F4 F4 | E2 F2 F2 F2 | _E2 D2 D4 | D4 G2 G2 | G2 G2 (_E2 D2) | D8 |] %13
V:3
 ^F,4 G,2 F,2 | G,2 A,2 (B,C) D2 | D4 _E4 | D2 D2 G,3 (G, | B,) (G,2 ^F,) G,4 :| %5
[M:2/2] B,4 C2 A,2 | G,2 F,2 A,2 B,2 | C4 C4 | C2 D2 C2 D2 | %9
"^2. Sie lehren eitel falsche List, was eigen Witz erfindet,\nIhr Herz nicht eines Sinnes ist in Gottes Wort gegründet,\nder wählet dies, der and're das, sie trennen uns ohn alle Maß\nund gleißen schön von außen.\n\n3. Gott woll ausrotten alle gar, die falschen Schein uns lehren,\ndazu ihr Zung' stolz offenbar spricht: Trotz, wer will's uns wehren,\nwir haben Recht und Macht allein, was wir setzen, das gilt gemein,\nwer ist, der uns soll meistern?\n\n4. Darum spricht Gott: ich muß auf sein, die Armen sind verstöret,\nihr Seufzen dringt zu mir herein, ich hab' ihr Klag' erhöret,\nmein heilsam Wort soll auf dem Plan getrost und frisch sie greifen an\nund sein die Kraft der Armen.\n\n5. Das Silber, durch's Feu'r siebenmal bewährt, wird lauter funden,\nan Gottes Wort man warten soll desgleichen alle Stunden,\nes will duch's Kreuz bewähret sein, da wird erkannt sein Kraft und Schein,\nund leucht stark durch die Lande.\n\n6. Das wollst du Gott bewahren rein vor diesem arg Geschlechte,\nund laß uns dir befohlen sein, daß sich's in uns nicht flechte,\nder gottlos Häuf sich umher find't, wo diese losen Leute sind\nin deinem Volk erhaben." C2 A,2 G,4 | %10
 B,4 B,2 D2 | _E2 D2 G,4 | ^F,8 |] %13
V:4
 D,4 G,,2 D,2 | _E,2 D,2 G,2 G,2 | D,4 C,4 | G,2 D,2 _E,2 C,2 | (G,2 D,2) G,,4 :| %5
[M:2/2] G,4 F,2 F,2 | C,2 D,2 D,2 G,2 | F,4 F,4 | C,2 B,,2 F,2 B,,2 | C,2 D,2 G,,4 | G,4 G,2 G,2 | %11
 C,2 =B,,2 (C,2 G,,2) | D,8 |] %13

